packages/swarm-icons/src/icons/line/Lightbulb.svg

<svg xmlns="http://www.w3.org/2000/svg" width="24" height="24" viewBox="0 0 24 24">
  <path fill="#757575" d="M14.6813634,17.9999981 C14.6617664,16.555353 14.8915367,15.437722 15.3908979,14.6454904 C15.6788285,14.1883323 15.9739137,13.8136571 16.4618253,13.2535251 C16.5777728,13.1207547 16.5777728,13.1207547 16.6919513,12.9902421 C18.0457329,11.4401733 18.5,10.4746589 18.5,8.375367 C18.5,4.85612238 15.5990287,2 12.0164751,2 L11.9835249,2 C8.40097128,2 5.5,4.85612238 5.5,8.375367 C5.5,10.4748025 5.95429287,11.4405704 7.30776422,12.9902364 C7.42262023,13.1215169 7.42262023,13.1215169 7.53926789,13.2550855 C8.02629587,13.8142057 8.32130115,14.188764 8.6091106,14.6455039 C9.1080952,15.4378164 9.33780325,16.5553688 9.31851519,17.9999488 L14.6813634,17.9999981 Z M7.76300407,15.1785177 C7.50893854,14.7753279 7.24113505,14.4353067 6.78522129,13.9119065 C6.670408,13.7804388 6.670408,13.7804388 6.55458895,13.6480563 C5.05568956,11.9318815 4.5,10.7505573 4.5,8.375367 C4.5,4.30032003 7.85214404,1 11.9835249,1 L12.0164751,1 C16.147856,1 19.5,4.30032003 19.5,8.375367 C19.5,10.7504497 18.9443327,11.9314832 17.4451366,13.6480506 C17.3300053,13.7796535 17.3300053,13.7796535 17.2158704,13.9103476 C16.7591234,14.4347022 16.4912596,14.7748137 16.2369609,15.1785732 C15.837249,15.8127123 15.6456109,16.8127524 15.6853507,18.176661 C15.6982454,18.6183202 15.3506455,18.9867923 14.9089907,18.9996606 C14.8973424,18.9999434 14.8973424,18.9999434 14.8856863,19 L9.11417862,18.9999469 C8.67238015,18.9999469 8.31423173,18.6417985 8.31423173,18.2 C8.3142874,18.1884414 8.3142874,18.1884414 8.31456574,18.1768859 C8.35399642,16.8128126 8.16236116,15.8126367 7.76300407,15.1785177 Z M9.5,20 L14.5,20 C14.7761424,20 15,20.2238576 15,20.5 L15,20.5 C15,20.7761424 14.7761424,21 14.5,21 L9.5,21 C9.22385763,21 9,20.7761424 9,20.5 L9,20.5 C9,20.2238576 9.22385763,20 9.5,20 Z M10,22 L14,22 C14.2761424,22 14.5,22.2238576 14.5,22.5 L14.5,22.5 C14.5,22.7761424 14.2761424,23 14,23 L10,23 C9.72385763,23 9.5,22.7761424 9.5,22.5 L9.5,22.5 C9.5,22.2238576 9.72385763,22 10,22 Z M10.4162888,3.75615437 C10.678231,3.6687423 10.9614387,3.81022696 11.0488507,4.07216921 C11.1362628,4.33411145 10.9947781,4.61731909 10.7328359,4.70473116 C9.11388702,5.24498641 8,6.76570136 8,8.5 C8,8.77614237 7.77614237,9 7.5,9 C7.22385763,9 7,8.77614237 7,8.5 C7,6.33220319 8.39212094,4.43163419 10.4162888,3.75615437 Z"/>
</svg>

<svg xmlns="http://www.w3.org/2000/svg" width="24" height="24"><path fill="#757575" d="M14.681 18c-.02-1.445.21-2.562.71-3.355.288-.457.583-.831 1.07-1.391l.231-.264c1.354-1.55 1.808-2.515 1.808-4.615C18.5 4.856 15.599 2 12.016 2h-.032C8.4 2 5.5 4.856 5.5 8.375c0 2.1.454 3.066 1.808 4.615l.231.265c.487.56.782.934 1.07 1.39.5.793.729 1.91.71 3.355h5.362zm-6.918-2.821c-.254-.404-.522-.744-.978-1.267l-.23-.264C5.055 11.932 4.5 10.751 4.5 8.375 4.5 4.3 7.852 1 11.984 1h.032C16.148 1 19.5 4.3 19.5 8.375c0 2.375-.556 3.556-2.055 5.273l-.23.262c-.456.525-.724.865-.978 1.269-.4.634-.591 1.634-.552 2.998a.8.8 0 01-.776.823H9.114a.8.8 0 01-.8-.8v-.023c.04-1.364-.152-2.364-.551-2.998zM9.5 20h5a.5.5 0 110 1h-5a.5.5 0 110-1zm.5 2h4a.5.5 0 110 1h-4a.5.5 0 110-1zm.416-18.244a.5.5 0 11.317.949A4.002 4.002 0 008 8.5a.5.5 0 01-1 0 5.002 5.002 0 013.416-4.744z"/></svg>
